Sources/FrostedUI/Resources/Icons.xcassets/gridAdd16.imageset/grid-add-16.svg

<svg width="16" height="16" viewBox="0 0 16 16" fill="none" xmlns="http://www.w3.org/2000/svg" data-fui-icon="true">
  <path
    d="M4.91992 9C6.06867 9 7 9.93133 7 11.0801V12.9199C7 14.0687 6.06867 15 4.91992 15H3.08008C1.93133 15 1 14.0687 1 12.9199V11.0801C1 9.93133 1.93133 9 3.08008 9H4.91992ZM12 9C12.4142 9 12.75 9.33579 12.75 9.75V11.25H14.25C14.6642 11.25 15 11.5858 15 12C15 12.4142 14.6642 12.75 14.25 12.75H12.75V14.25C12.75 14.6642 12.4142 15 12 15C11.5858 15 11.25 14.6642 11.25 14.25V12.75H9.75C9.33579 12.75 9 12.4142 9 12C9 11.5858 9.33579 11.25 9.75 11.25H11.25V9.75C11.25 9.33579 11.5858 9 12 9ZM3.08008 10.5C2.75975 10.5 2.5 10.7598 2.5 11.0801V12.9199C2.5 13.2402 2.75975 13.5 3.08008 13.5H4.91992C5.24025 13.5 5.5 13.2402 5.5 12.9199V11.0801C5.5 10.7598 5.24025 10.5 4.91992 10.5H3.08008ZM4.91992 1C6.06867 1 7 1.93133 7 3.08008V4.91992C7 6.06867 6.06867 7 4.91992 7H3.08008C1.93133 7 1 6.06867 1 4.91992V3.08008C1 1.93133 1.93133 1 3.08008 1H4.91992ZM12.9199 1C14.0687 1 15 1.93133 15 3.08008V4.91992C15 6.06867 14.0687 7 12.9199 7H11.0801C9.93133 7 9 6.06867 9 4.91992V3.08008C9 1.93133 9.93133 1 11.0801 1H12.9199ZM3.08008 2.5C2.75975 2.5 2.5 2.75975 2.5 3.08008V4.91992C2.5 5.24025 2.75975 5.5 3.08008 5.5H4.91992C5.24025 5.5 5.5 5.24025 5.5 4.91992V3.08008C5.5 2.75975 5.24025 2.5 4.91992 2.5H3.08008ZM11.0801 2.5C10.7598 2.5 10.5 2.75975 10.5 3.08008V4.91992C10.5 5.24025 10.7598 5.5 11.0801 5.5H12.9199C13.2402 5.5 13.5 5.24025 13.5 4.91992V3.08008C13.5 2.75975 13.2402 2.5 12.9199 2.5H11.0801Z"
    fill="currentColor"
  />
</svg>

<svg xmlns="http://www.w3.org/2000/svg" width="16" height="16" fill="none" data-fui-icon="true" viewBox="0 0 16 16"><path fill="currentColor" d="M4.92 9A2.08 2.08 0 0 1 7 11.08v1.84A2.08 2.08 0 0 1 4.92 15H3.08A2.08 2.08 0 0 1 1 12.92v-1.84A2.08 2.08 0 0 1 3.08 9zM12 9a.75.75 0 0 1 .75.75v1.5h1.5a.75.75 0 0 1 0 1.5h-1.5v1.5a.75.75 0 0 1-1.5 0v-1.5h-1.5a.75.75 0 0 1 0-1.5h1.5v-1.5A.75.75 0 0 1 12 9m-8.92 1.5a.58.58 0 0 0-.58.58v1.84c0 .32.26.58.58.58h1.84c.32 0 .58-.26.58-.58v-1.84a.58.58 0 0 0-.58-.58zM4.92 1A2.08 2.08 0 0 1 7 3.08v1.84A2.08 2.08 0 0 1 4.92 7H3.08A2.08 2.08 0 0 1 1 4.92V3.08A2.08 2.08 0 0 1 3.08 1zm8 0A2.08 2.08 0 0 1 15 3.08v1.84A2.08 2.08 0 0 1 12.92 7h-1.84A2.08 2.08 0 0 1 9 4.92V3.08A2.08 2.08 0 0 1 11.08 1zM3.08 2.5a.58.58 0 0 0-.58.58v1.84c0 .32.26.58.58.58h1.84c.32 0 .58-.26.58-.58V3.08a.58.58 0 0 0-.58-.58zm8 0a.58.58 0 0 0-.58.58v1.84c0 .32.26.58.58.58h1.84c.32 0 .58-.26.58-.58V3.08a.58.58 0 0 0-.58-.58z"/></svg>
